src/components/Camino/assets/label-voting.svg

<svg fill="none" height="24" viewBox="0 0 24 24" width="24" xmlns="http://www.w3.org/2000/svg" xmlns:xlink="http://www.w3.org/1999/xlink"><linearGradient id="a" gradientUnits="userSpaceOnUse" x1="0" x2="20.1429" y1="-4.00208" y2="24"><stop offset="0" stop-color="#a8ed2f"/><stop offset="1" stop-color="#68dfb1"/></linearGradient><rect fill="url(#a)" height="24" rx="4" width="24"/><g fill="#fff"><path d="m14.2857 8.30357c0-.48615-.3857-.88392-.8571-.88392h-4.44433l.57002-2.80645c.01285-.0663.02141-.13703.02141-.20771 0-.27401-.10716-.52153-.28286-.70273l-.68142-.70276-4.23426 4.36662c-.23143.23866-.37716.57013-.37716.93695v5.74553c0 .7337.57427 1.3259 1.28571 1.3259h5.78569c.5315 0 .99-.3315 1.1829-.8088l1.9414-4.67596c.0557-.15028.09-.30939.09-.48175z"/><path d="m9.71429 15.6964c0 .4862.38571.8839.85711.8839h4.4443l-.57 2.8065c-.0128.0663-.0214.137-.0214.2077 0 .274.1072.5215.2829.7027l.6814.7028 4.2342-4.3666c.2315-.2387.3772-.5701.3772-.937v-5.74551c0-.73367-.5743-1.32589-1.2857-1.32589h-5.7857c-.5315 0-.99.33147-1.1829.80879l-1.94141 4.67601c-.05573.1502-.09.3093-.09.4817z" fill-opacity=".6"/></g></svg>

<svg width="24" height="24" viewBox="0 0 24 24" fill="none" xmlns="http://www.w3.org/2000/svg">
<rect width="24" height="24" rx="4" fill="url(#paint0_linear)"/>
<path d="M14.2857 8.30357C14.2857 7.81742 13.9 7.41965 13.4286 7.41965H8.98427L9.55429 4.6132C9.56714 4.5469 9.5757 4.47617 9.5757 4.40549C9.5757 4.13148 9.46854 3.88396 9.29284 3.70276L8.61142 3L4.37716 7.36662C4.14573 7.60528 4 7.93675 4 8.30357V14.0491C4 14.7828 4.57427 15.375 5.28571 15.375H11.0714C11.6029 15.375 12.0614 15.0435 12.2543 14.5662L14.1957 9.89024C14.2514 9.73996 14.2857 9.58085 14.2857 9.40849V8.30357Z" fill="white"/>
<path d="M9.71429 15.6964C9.71429 16.1826 10.1 16.5803 10.5714 16.5803L15.0157 16.5803L14.4457 19.3868C14.4329 19.4531 14.4243 19.5238 14.4243 19.5945C14.4243 19.8685 14.5315 20.116 14.7072 20.2972L15.3886 21L19.6228 16.6334C19.8543 16.3947 20 16.0633 20 15.6964L20 9.95089C20 9.21722 19.4257 8.625 18.7143 8.625L12.9286 8.625C12.3971 8.625 11.9386 8.95647 11.7457 9.43379L9.80429 14.1098C9.74856 14.26 9.71429 14.4191 9.71429 14.5915L9.71429 15.6964Z" fill="white" fill-opacity="0.6"/>
<defs>
<linearGradient id="paint0_linear" x1="-4.98362e-07" y1="-4.00208" x2="20.1429" y2="24" gradientUnits="userSpaceOnUse">
<stop stop-color="#A8ED2F"/>
<stop offset="1" stop-color="#68DFB1"/>
</linearGradient>
</defs>
</svg>
